build/assets/img/about-us/seo-element-1.svg

<svg width="42" height="42" viewBox="0 0 42 42" fill="none" xmlns="http://www.w3.org/2000/svg">
<path d="M40.9923 39.7891H40.1406V15.0678C40.1406 14.5973 39.759 14.2153 39.2888 14.2153H34.1787C33.7086 14.2153 33.327 14.5973 33.327 15.0678V39.789H29.9202V25.2973C29.9202 24.8267 29.5386 24.4448 29.0685 24.4448H23.9584C23.4882 24.4448 23.1066 24.8267 23.1066 25.2973V39.789H19.6999V21.8874C19.6999 21.4169 19.3183 21.035 18.8481 21.035H13.738C13.2679 21.035 12.8863 21.4169 12.8863 21.8874V39.789H9.4795V30.412C9.4795 29.9415 9.09791 29.5595 8.62778 29.5595H3.51796C3.04783 29.5595 2.66624 29.9415 2.66624 30.412V39.789H1.81461C1.34447 39.7891 0.962891 40.1709 0.962891 40.6415C0.962891 41.1121 1.34447 41.494 1.81461 41.494H3.51796H8.6281H13.7382H18.8484H23.9585H29.0687H34.1788H39.2889H40.9923C41.4624 41.494 41.844 41.1121 41.844 40.6415C41.844 40.1709 41.4624 39.7891 40.9923 39.7891Z" fill="url(#paint0_linear)"/>
<path d="M36.7356 0.575684C34.8567 0.575684 33.3288 2.10499 33.3288 3.98554C33.3288 4.61633 33.5128 5.19941 33.8108 5.70753L28.2357 11.2877C27.7281 10.9893 27.1455 10.8052 26.5153 10.8052C25.4473 10.8052 24.5036 11.3098 23.8785 12.0822L19.6933 10.887C19.6933 10.8597 19.7018 10.8342 19.7018 10.8052C19.7018 8.92462 18.1739 7.39531 16.295 7.39531C14.4162 7.39531 12.8882 8.92462 12.8882 10.8052C12.8882 11.3013 12.999 11.7684 13.1897 12.1929L7.86666 16.4433C7.3455 16.1159 6.73396 15.9199 6.07475 15.9199C4.1959 15.9199 2.66797 17.4492 2.66797 19.3298C2.66797 21.2103 4.1959 22.7396 6.07475 22.7396C7.95361 22.7396 9.48154 21.2103 9.48154 19.3298C9.48154 18.7313 9.3129 18.1755 9.04039 17.6862L14.2578 13.5212C14.8285 13.9508 15.5286 14.2151 16.2951 14.2151C17.5437 14.2151 18.627 13.5314 19.2198 12.5256L23.1665 13.6525C23.1341 13.8366 23.1086 14.0224 23.1086 14.2151C23.1086 16.0956 24.6365 17.625 26.5154 17.625C28.3942 17.625 29.9222 16.0956 29.9222 14.2151C29.9222 13.5843 29.7382 13.0012 29.4401 12.4931L35.017 6.91125C35.5229 7.21134 36.1054 7.39547 36.7357 7.39547C38.6145 7.39547 40.1424 5.86616 40.1424 3.98562C40.1424 2.10499 38.6144 0.575684 36.7356 0.575684Z" fill="url(#paint1_linear)"/>
<path d="M30.329 14.1195C30.329 16.1884 28.6534 17.8655 26.5864 17.8655C24.5194 17.8655 22.8438 16.1884 22.8438 14.1195C22.8438 12.0507 24.5194 10.3735 26.5864 10.3735C28.6534 10.3735 30.329 12.0507 30.329 14.1195Z" fill="url(#paint2_linear)"/>
<path d="M40.6923 3.74601C40.6923 5.81487 39.0167 7.49201 36.9497 7.49201C34.8827 7.49201 33.207 5.81487 33.207 3.74601C33.207 1.67714 34.8827 0 36.9497 0C39.0167 0 40.6923 1.67714 40.6923 3.74601Z" fill="url(#paint3_linear)"/>
<path d="M19.9638 10.6615C19.9638 12.7304 18.2882 14.4075 16.2212 14.4075C14.1542 14.4075 12.4785 12.7304 12.4785 10.6615C12.4785 8.59267 14.1542 6.91553 16.2212 6.91553C18.2882 6.91553 19.9638 8.59267 19.9638 10.6615Z" fill="url(#paint4_linear)"/>
<path d="M9.60051 19.3063C9.60051 21.3752 7.92487 23.0523 5.85787 23.0523C3.79087 23.0523 2.11523 21.3752 2.11523 19.3063C2.11523 17.2374 3.79087 15.5603 5.85787 15.5603C7.92487 15.5603 9.60051 17.2374 9.60051 19.3063Z" fill="url(#paint5_linear)"/>
<defs>
<linearGradient id="paint0_linear" x1="39.9676" y1="16.5596" x2="2.02462" y2="37.7088" gradientUnits="userSpaceOnUse">
<stop stop-color="#A62E41"/>
<stop offset="1" stop-color="#F5193B"/>
</linearGradient>
<linearGradient id="paint1_linear" x1="37.8534" y1="1.81441" x2="4.06618" y2="18.9322" gradientUnits="userSpaceOnUse">
<stop stop-color="#9B283A"/>
<stop offset="1" stop-color="#D73251"/>
</linearGradient>
<linearGradient id="paint2_linear" x1="26.5864" y1="10.3735" x2="26.5864" y2="17.8655" gradientUnits="userSpaceOnUse">
<stop stop-color="#274684"/>
<stop offset="1" stop-color="#669DEB"/>
</linearGradient>
<linearGradient id="paint3_linear" x1="36.9497" y1="0" x2="36.9497" y2="7.49201" gradientUnits="userSpaceOnUse">
<stop stop-color="#274684"/>
<stop offset="1" stop-color="#669DEB"/>
</linearGradient>
<linearGradient id="paint4_linear" x1="16.2212" y1="6.91553" x2="16.2212" y2="14.4075" gradientUnits="userSpaceOnUse">
<stop stop-color="#274684"/>
<stop offset="1" stop-color="#669DEB"/>
</linearGradient>
<linearGradient id="paint5_linear" x1="5.85787" y1="15.5603" x2="5.85787" y2="23.0523" gradientUnits="userSpaceOnUse">
<stop stop-color="#274684"/>
<stop offset="1" stop-color="#669DEB"/>
</linearGradient>
</defs>
</svg>

<svg width="42" height="42" fill="none" xmlns="http://www.w3.org/2000/svg"><path d="M40.992 39.79h-.851V15.067a.853.853 0 00-.852-.853h-5.11a.852.852 0 00-.852.853v24.721H29.92V25.297a.852.852 0 00-.852-.852h-5.11a.852.852 0 00-.851.852V39.79H19.7V21.887a.852.852 0 00-.852-.852h-5.11a.852.852 0 00-.852.852V39.79H9.48v-9.377a.852.852 0 00-.852-.852h-5.11a.852.852 0 00-.852.852v9.377h-.851a.852.852 0 000 1.705h39.177a.852.852 0 000-1.705z" fill="url(#paint0_linear)"/><path d="M36.736.576a3.412 3.412 0 00-3.407 3.41c0 .63.184 1.213.482 1.722l-5.575 5.58a3.38 3.38 0 00-1.72-.483 3.387 3.387 0 00-2.637 1.277l-4.186-1.195c0-.027.009-.053.009-.082 0-1.88-1.528-3.41-3.407-3.41a3.412 3.412 0 00-3.407 3.41c0 .496.111.963.302 1.388l-5.323 4.25a3.356 3.356 0 00-1.792-.523 3.412 3.412 0 00-3.407 3.41c0 1.88 1.528 3.41 3.407 3.41a3.412 3.412 0 003.407-3.41c0-.599-.17-1.154-.442-1.644l5.218-4.165c.57.43 1.27.694 2.037.694a3.396 3.396 0 002.925-1.69l3.947 1.127a3.18 3.18 0 00-.058.563c0 1.88 1.527 3.41 3.406 3.41a3.412 3.412 0 003.407-3.41c0-.63-.184-1.214-.482-1.722l5.577-5.582c.506.3 1.088.484 1.719.484a3.412 3.412 0 003.406-3.41c0-1.88-1.528-3.41-3.406-3.41z" fill="url(#paint1_linear)"/><path d="M30.329 14.12a3.744 3.744 0 01-3.743 3.746 3.744 3.744 0 01-3.742-3.746 3.744 3.744 0 013.742-3.746 3.744 3.744 0 013.743 3.745z" fill="url(#paint2_linear)"/><path d="M40.692 3.746a3.744 3.744 0 01-3.742 3.746 3.744 3.744 0 01-3.743-3.746A3.744 3.744 0 0136.95 0a3.744 3.744 0 013.742 3.746z" fill="url(#paint3_linear)"/><path d="M19.964 10.662a3.744 3.744 0 01-3.743 3.745 3.744 3.744 0 01-3.742-3.745 3.744 3.744 0 013.742-3.746 3.744 3.744 0 013.743 3.745z" fill="url(#paint4_linear)"/><path d="M9.6 19.306a3.744 3.744 0 01-3.742 3.746 3.744 3.744 0 01-3.743-3.746 3.744 3.744 0 013.743-3.746A3.744 3.744 0 019.6 19.306z" fill="url(#paint5_linear)"/><defs><linearGradient id="paint0_linear" x1="39.968" y1="16.56" x2="2.025" y2="37.709" gradientUnits="userSpaceOnUse"><stop stop-color="#A62E41"/><stop offset="1" stop-color="#F5193B"/></linearGradient><linearGradient id="paint1_linear" x1="37.853" y1="1.814" x2="4.066" y2="18.932" gradientUnits="userSpaceOnUse"><stop stop-color="#9B283A"/><stop offset="1" stop-color="#D73251"/></linearGradient><linearGradient id="paint2_linear" x1="26.586" y1="10.373" x2="26.586" y2="17.866" gradientUnits="userSpaceOnUse"><stop stop-color="#274684"/><stop offset="1" stop-color="#669DEB"/></linearGradient><linearGradient id="paint3_linear" x1="36.95" y1="0" x2="36.95" y2="7.492" gradientUnits="userSpaceOnUse"><stop stop-color="#274684"/><stop offset="1" stop-color="#669DEB"/></linearGradient><linearGradient id="paint4_linear" x1="16.221" y1="6.916" x2="16.221" y2="14.408" gradientUnits="userSpaceOnUse"><stop stop-color="#274684"/><stop offset="1" stop-color="#669DEB"/></linearGradient><linearGradient id="paint5_linear" x1="5.858" y1="15.56" x2="5.858" y2="23.052" gradientUnits="userSpaceOnUse"><stop stop-color="#274684"/><stop offset="1" stop-color="#669DEB"/></linearGradient></defs></svg>
